X: 1
T: My Darling Asleep
R: Jig
M: 6/8
L: 1/8
K: D
|:e|fdd cAA|BAG A2G|FAA def|gfg eag|
fdd cAA|BAG A2G|FAA def|gec d2:|
G|FAA BAG|FAA BAG|FAA def|gfg eag|
fdd cAA|BAG A2G|FAA def|gec d2:|